COLOR/status 16/16/software-update-urgent.svg

<svg height="16" width="16" xmlns="http://www.w3.org/2000/svg"><rect fill="#fff" height="8.81356" rx=".392857" width="3.932203" x="6.169491" y="3.728814"/><g stroke-width=".9592"><path d="m7.9995241.5-2.1987436 1.594922-2.6965543.2136229-.6748525 2.6582034-1.9293737 1.9235726 1.1660004 2.4774456-.2608034 2.7316665 2.4614506 1.136744 1.5286503 2.263823 2.6042262-.734631 2.6042259.734631 1.528651-2.263823 2.46145-1.136744-.260803-2.7316665 1.166952-2.4784122-1.929374-1.9235726-.675804-2.6582034-2.694651-.2126563zm-.9518371 3.8664776h1.9036741v2.8998583l-.4759185 1.9332388h-.951837l-.4759186-1.9332388zm.9518371 5.7997164a.95183714.9666195 0 1 1 0 1.933239.95183714.9666195 0 0 1 0-1.933239z" fill="#fdc92b"/><path d="m8 .5-2.1992188 1.5957031-2.6972656.2128907-.6738281 2.6582031-1.9296875 1.9238281.16015625.3398438 1.76953125-1.7636719.6738281-2.6582031 2.6972656-.2128907 2.1992188-1.5957031 2.199219 1.5957031 2.695312.2109375.675781 2.6582032 1.769532 1.7636718.160156-.3398437-1.929688-1.9238281-.675781-2.6582032-2.695312-.2109375zm-6.3730469 9.2832031-.2226562 2.3164059.044922.02149.2167968-2.2539065zm12.7460939 0-.03906.083984.214844 2.2539065.04492-.02149z" fill="#fff" opacity=".3"/><path d="m15.339844 6.7285156-1.00586 2.1386719.03906.4160156 1.126956-2.3945312zm-14.67968775.0019532-.16015625.1601562 1.1269531 2.3925781.0390625-.4160156zm.78906255 4.8906252-.0449219.478515 2.4628906 1.136719 1.5273437 2.263672 2.6054688-.734375 2.603516.734375 1.529296-2.263672 2.460938-1.136719-.044922-.478515-2.416016 1.115234-1.529296 2.263672-2.603516-.734375-2.6054688.734375-1.5273437-2.263672z" opacity=".2"/></g></svg>

<?xml version="1.0" encoding="UTF-8" standalone="no"?>
<svg
   xmlns:dc="http://purl.org/dc/elements/1.1/"
   xmlns:cc="http://creativecommons.org/ns#"
   xmlns:rdf="http://www.w3.org/1999/02/22-rdf-syntax-ns#"
   xmlns:svg="http://www.w3.org/2000/svg"
   xmlns="http://www.w3.org/2000/svg"
   xmlns:sodipodi="http://sodipodi.sourceforge.net/DTD/sodipodi-0.dtd"
   xmlns:inkscape="http://www.inkscape.org/namespaces/inkscape"
   height="16"
   width="16"
   version="1.1"
   id="svg4"
   sodipodi:docname="software-update-urgent.svg"
   inkscape:version="0.92.4 (5da689c313, 2019-01-14)">
  <metadata
     id="metadata10">
    <rdf:RDF>
      <cc:Work
         rdf:about="">
        <dc:format>image/svg+xml</dc:format>
        <dc:type
           rdf:resource="http://purl.org/dc/dcmitype/StillImage" />
      </cc:Work>
    </rdf:RDF>
  </metadata>
  <defs
     id="defs8" />
  <sodipodi:namedview
     pagecolor="#ffffff"
     bordercolor="#666666"
     borderopacity="1"
     objecttolerance="10"
     gridtolerance="10"
     guidetolerance="10"
     inkscape:pageopacity="0"
     inkscape:pageshadow="2"
     inkscape:window-width="1920"
     inkscape:window-height="1016"
     id="namedview6"
     showgrid="false"
     inkscape:zoom="14.75"
     inkscape:cx="0.30508475"
     inkscape:cy="8"
     inkscape:window-x="0"
     inkscape:window-y="27"
     inkscape:window-maximized="1"
     inkscape:current-layer="svg4" />
  <rect
     style="opacity:1;fill:#ffffff;fill-opacity:1;stroke:none"
     id="rect827"
     width="3.9322033"
     height="8.8135595"
     x="6.1694913"
     y="3.7288136"
     rx="0.39285699"
     ry="0.39285699" />
  <path
     class="warning"
     d="M 7.9995241,0.5 5.8007805,2.094922 3.1042262,2.3085449 2.4293737,4.9667483 0.5,6.8903209 1.6660004,9.3677665 1.405197,12.099433 3.8666476,13.236177 5.3952979,15.5 7.9995241,14.765369 10.60375,15.5 12.132401,13.236177 14.593851,12.099433 14.333048,9.3677665 15.5,6.8893543 13.570626,4.9657817 12.894822,2.3075783 10.200171,2.094922 Z M 7.047687,4.3664776 H 8.9513611 V 7.2663359 L 8.4754426,9.1995747 H 7.5236056 L 7.047687,7.2663359 Z m 0.9518371,5.7997164 a 0.95183714,0.9666195 0 1 1 0,1.933239 0.95183714,0.9666195 0 0 1 0,-1.933239 z"
     style="color:#000000;font-weight:400;line-height:normal;font-family:sans-serif;font-variant-ligatures:normal;font-variant-position:normal;font-variant-caps:normal;font-variant-numeric:normal;font-variant-alternates:normal;font-feature-settings:normal;text-indent:0;text-align:start;text-decoration:none;text-decoration-line:none;text-decoration-style:solid;text-decoration-color:#000000;text-transform:none;text-orientation:mixed;white-space:normal;shape-padding:0;overflow:visible;isolation:auto;mix-blend-mode:normal;fill:#fdc92b;stroke-width:0.95919973;marker:none"
     font-weight="400"
     overflow="visible"
     id="path2"
     inkscape:connector-curvature="0" />
  <path
     style="color:#000000;font-weight:400;line-height:normal;font-family:sans-serif;font-variant-ligatures:normal;font-variant-position:normal;font-variant-caps:normal;font-variant-numeric:normal;font-variant-alternates:normal;font-feature-settings:normal;text-indent:0;text-align:start;text-decoration:none;text-decoration-line:none;text-decoration-style:solid;text-decoration-color:#000000;text-transform:none;text-orientation:mixed;white-space:normal;shape-padding:0;overflow:visible;opacity:0.3;isolation:auto;mix-blend-mode:normal;fill:#ffffff;fill-opacity:1;stroke-width:0.95919973;marker:none"
     d="M 8,0.5 5.8007812,2.0957031 3.1035156,2.3085938 2.4296875,4.9667969 0.5,6.890625 0.66015625,7.2304688 2.4296875,5.4667969 3.1035156,2.8085938 5.8007812,2.5957031 8,1 10.199219,2.5957031 12.894531,2.8066406 13.570312,5.4648438 15.339844,7.2285156 15.5,6.8886719 13.570312,4.9648438 12.894531,2.3066406 10.199219,2.0957031 Z m -6.3730469,9.2832031 -0.2226562,2.3164059 0.044922,0.02149 0.2167968,-2.2539065 z m 12.7460939,0 -0.03906,0.083984 0.214844,2.2539065 0.04492,-0.02149 z"
     id="path817"
     inkscape:connector-curvature="0"
     sodipodi:nodetypes="ccccccccccccccccccccccccccccc" />
  <path
     style="color:#000000;font-weight:400;line-height:normal;font-family:sans-serif;font-variant-ligatures:normal;font-variant-position:normal;font-variant-caps:normal;font-variant-numeric:normal;font-variant-alternates:normal;font-feature-settings:normal;text-indent:0;text-align:start;text-decoration:none;text-decoration-line:none;text-decoration-style:solid;text-decoration-color:#000000;text-transform:none;text-orientation:mixed;white-space:normal;shape-padding:0;overflow:visible;opacity:0.2;isolation:auto;mix-blend-mode:normal;fill:#000000;fill-opacity:1;stroke-width:0.95919973;marker:none"
     d="m 15.339844,6.7285156 -1.00586,2.1386719 0.03906,0.4160156 L 15.5,6.8886719 Z M 0.66015625,6.7304688 0.5,6.890625 1.6269531,9.2832031 1.6660156,8.8671875 Z M 1.4492188,11.621094 1.4042969,12.099609 3.8671875,13.236328 5.3945312,15.5 8,14.765625 10.603516,15.5 12.132812,13.236328 14.59375,12.099609 14.548828,11.621094 12.132812,12.736328 10.603516,15 8,14.265625 5.3945312,15 3.8671875,12.736328 Z"
     id="path822"
     inkscape:connector-curvature="0"
     sodipodi:nodetypes="ccccccccccccccccccccccccc" />
</svg>
